!!!SOCIAL_FUNCTION:	miscellaneous songs
!!!PDT:	1957
!!!OTL: No_15_Song_Telling_Where_Maidens_Are_Grinding_Corn.krn
!!!LING_GROUP: Keresan
!!!LANG: Tone
!!!REG: Southwest
**kern
*staff1
=1-
*clefF4
*k[]
*M2/4
16c\LK
8A\
16A\Jk
8c\L
8A\J
=2
*M5/8
8A\L
8A\
8A\
8A\J
8r
=3
*M3/4
16c\LK
8A\
16A\Jk
8A\L
8A\J
16c\LL
16A\J
8A\J
=4!|:
4.g\
24a\LL
24g\
24f\JJ
4f\
=5
*M2/4
4d\
8.d\L
16d\Jk
=6
16c\LL
16c\J
8A\J
8G\
8r
=7
8.d\L
16f\Jk
16g\LL
16f\
16e\
16d\JJ
=8
8f\L
8c\J
8.A\L
16c\Jk
=9
16A\LL
16G\
16G\
16G\JJ
4G\
=10
4e\
16d\LL
16c\
16B\
16A\JJ
=11
8.c\L
16A\Jk
8G\
8r
=12
*M3/4
8d\L
8B\J
8B\L
8B\J
8A\L
8G\J
=13
8B\L
16B\L
16B\JJ
8B\
8r
8A\L
8G\J
=14
*M2/4
8d\L
8B\J
8B\L
8B\J
=15
16A\LK
8.A\J
8A\L
8B\J
=16
8A\L
8A\J
8A\L
8A\J
=17
*M3/4
8B\L
8A\J
8A\L
8A\J
8A\
8r
=18
8B\L
8A\J
8A\L
8A\J
16B\LL
16B\J
8A\J
==:|!
*-
